src/assets/upbot-sad.svg

<svg fill="none" height="83" viewBox="0 0 83 83" width="83" xmlns="http://www.w3.org/2000/svg"><path d="m41.5 83c22.9198 0 41.5-18.5802 41.5-41.5s-18.5802-41.5-41.5-41.5-41.5 18.5802-41.5 41.5 18.5802 41.5 41.5 41.5z" fill="#16d2aa"/><path d="m41.1367 68.082c-15.4149 0-18.2187 9.9648-18.2187 9.9648s17.7554 10.8791 36.4374.3451c0 0-2.8008-10.3099-18.2187-10.3099z" fill="#e0efe8"/><path d="m22.918 78.5758s2.8038-10.4977 18.2187-10.4977 18.2459 10.8761 18.2459 10.8761" fill="#e0efe8"/><g stroke="#000" stroke-miterlimit="10" stroke-width="1.2"><path d="m22.918 78.5758s2.8038-10.4977 18.2187-10.4977 18.2459 10.8761 18.2459 10.8761"/><path d="m41.7634 20.6376s-1.2898-8.3509 6.3222-12.22354"/><path d="m50.8288 10.6193c1.5151 0 2.7433-1.22818 2.7433-2.74324 0-1.51505-1.2282-2.74325-2.7433-2.74325-1.515 0-2.7432 1.2282-2.7432 2.74325 0 1.51506 1.2282 2.74324 2.7432 2.74324z" fill="#f3f9f6"/><path d="m15.9541 51.0754c3.8027 0 6.8854-3.0826 6.8854-6.8853s-3.0827-6.8854-6.8854-6.8854-6.88537 3.0827-6.88537 6.8854 3.08267 6.8853 6.88537 6.8853z" fill="#e0efe8"/><path d="m67.5038 51.0754c3.8027 0 6.8854-3.0826 6.8854-6.8853s-3.0827-6.8854-6.8854-6.8854-6.8854 3.0827-6.8854 6.8854 3.0827 6.8853 6.8854 6.8853z" fill="#e0efe8"/><path d="m41.7304 25.131c2.4298 0 4.3995-1.9697 4.3995-4.3995 0-2.4297-1.9697-4.3995-4.3995-4.3995-2.4297 0-4.3995 1.9698-4.3995 4.3995 0 2.4298 1.9698 4.3995 4.3995 4.3995z" fill="#e0efe8"/><path d="m49.6211 64.8709h-15.7843c-10.5461 0-19.0938-8.5477-19.0938-19.0938v-6.0466c0-10.5461 8.5477-19.0938 19.0938-19.0938h15.7843c10.5461 0 19.0937 8.5477 19.0937 19.0938v6.0466c0 10.5461-8.5476 19.0938-19.0937 19.0938z" fill="#e0efe8"/><path d="m53.5937 57.0764h-23.7234c-4.6629 0-8.4417-3.7788-8.4417-8.4417v-8.0602c0-4.6629 3.7788-8.4417 8.4417-8.4417h23.7234c4.6629 0 8.4417 3.7788 8.4417 8.4417v8.0602c0 4.6629-3.7818 8.4417-8.4417 8.4417z" fill="#fff"/><path d="m45.6667 52.5156s-.7298-2.9976-3.9363-2.9976c-3.2095 0-3.9362 2.9976-3.9362 2.9976" stroke-linecap="round" stroke-linejoin="round"/><path d="m32.7195 20.7305v11.0033"/><path d="m50.7747 20.7305v11.0033"/><path d="m49.1879 43.1644s.5177 2.1286 2.7977 2.1286 2.7978-2.1286 2.7978-2.1286" stroke-linecap="round" stroke-linejoin="round"/><path d="m28.7103 43.1644s.5178 2.1286 2.7978 2.1286 2.7977-2.1286 2.7977-2.1286" stroke-linecap="round" stroke-linejoin="round"/></g></svg>

<svg width="83" height="83" viewBox="0 0 83 83" fill="none" xmlns="http://www.w3.org/2000/svg">
<path d="M41.5 83C64.4198 83 83 64.4198 83 41.5C83 18.5802 64.4198 0 41.5 0C18.5802 0 0 18.5802 0 41.5C0 64.4198 18.5802 83 41.5 83Z" fill="#16D2AA"/>
<path d="M41.1367 68.082C25.7218 68.082 22.918 78.0468 22.918 78.0468C22.918 78.0468 40.6734 88.9259 59.3554 78.3919C59.3554 78.3919 56.5546 68.082 41.1367 68.082Z" fill="#E0EFE8"/>
<path d="M22.918 78.5758C22.918 78.5758 25.7218 68.0781 41.1367 68.0781C56.5516 68.0781 59.3826 78.9542 59.3826 78.9542" fill="#E0EFE8"/>
<path d="M22.918 78.5758C22.918 78.5758 25.7218 68.0781 41.1367 68.0781C56.5516 68.0781 59.3826 78.9542 59.3826 78.9542" stroke="black" stroke-width="1.2" stroke-miterlimit="10"/>
<path d="M41.7634 20.6376C41.7634 20.6376 40.4736 12.2867 48.0856 8.41406" stroke="black" stroke-width="1.2" stroke-miterlimit="10"/>
<path d="M50.8288 10.6193C52.3439 10.6193 53.5721 9.39112 53.5721 7.87606C53.5721 6.36101 52.3439 5.13281 50.8288 5.13281C49.3138 5.13281 48.0856 6.36101 48.0856 7.87606C48.0856 9.39112 49.3138 10.6193 50.8288 10.6193Z" fill="#F3F9F6" stroke="black" stroke-width="1.2" stroke-miterlimit="10"/>
<path d="M15.9541 51.0754C19.7568 51.0754 22.8395 47.9928 22.8395 44.1901C22.8395 40.3874 19.7568 37.3047 15.9541 37.3047C12.1514 37.3047 9.06873 40.3874 9.06873 44.1901C9.06873 47.9928 12.1514 51.0754 15.9541 51.0754Z" fill="#E0EFE8" stroke="black" stroke-width="1.2" stroke-miterlimit="10"/>
<path d="M67.5038 51.0754C71.3065 51.0754 74.3892 47.9928 74.3892 44.1901C74.3892 40.3874 71.3065 37.3047 67.5038 37.3047C63.7011 37.3047 60.6184 40.3874 60.6184 44.1901C60.6184 47.9928 63.7011 51.0754 67.5038 51.0754Z" fill="#E0EFE8" stroke="black" stroke-width="1.2" stroke-miterlimit="10"/>
<path d="M41.7304 25.131C44.1602 25.131 46.1299 23.1613 46.1299 20.7315C46.1299 18.3018 44.1602 16.332 41.7304 16.332C39.3007 16.332 37.3309 18.3018 37.3309 20.7315C37.3309 23.1613 39.3007 25.131 41.7304 25.131Z" fill="#E0EFE8" stroke="black" stroke-width="1.2" stroke-miterlimit="10"/>
<path d="M49.6211 64.8709H33.8368C23.2907 64.8709 14.743 56.3232 14.743 45.7771V39.7305C14.743 29.1844 23.2907 20.6367 33.8368 20.6367H49.6211C60.1672 20.6367 68.7148 29.1844 68.7148 39.7305V45.7771C68.7148 56.3232 60.1672 64.8709 49.6211 64.8709Z" fill="#E0EFE8" stroke="black" stroke-width="1.2" stroke-miterlimit="10"/>
<path d="M53.5937 57.0764H29.8703C25.2074 57.0764 21.4286 53.2976 21.4286 48.6347V40.5745C21.4286 35.9116 25.2074 32.1328 29.8703 32.1328H53.5937C58.2566 32.1328 62.0354 35.9116 62.0354 40.5745V48.6347C62.0354 53.2976 58.2536 57.0764 53.5937 57.0764Z" fill="white" stroke="black" stroke-width="1.2" stroke-miterlimit="10"/>
<path d="M45.6667 52.5156C45.6667 52.5156 44.9369 49.518 41.7304 49.518C38.5209 49.518 37.7942 52.5156 37.7942 52.5156" stroke="black" stroke-width="1.2" stroke-miterlimit="10" stroke-linecap="round" stroke-linejoin="round"/>
<path d="M32.7195 20.7305V31.7338" stroke="black" stroke-width="1.2" stroke-miterlimit="10"/>
<path d="M50.7747 20.7305V31.7338" stroke="black" stroke-width="1.2" stroke-miterlimit="10"/>
<path d="M49.1879 43.1644C49.1879 43.1644 49.7056 45.293 51.9856 45.293C54.2656 45.293 54.7834 43.1644 54.7834 43.1644" stroke="black" stroke-width="1.2" stroke-miterlimit="10" stroke-linecap="round" stroke-linejoin="round"/>
<path d="M28.7103 43.1644C28.7103 43.1644 29.2281 45.293 31.5081 45.293C33.7881 45.293 34.3058 43.1644 34.3058 43.1644" stroke="black" stroke-width="1.2" stroke-miterlimit="10" stroke-linecap="round" stroke-linejoin="round"/>
</svg>
